_includes/icons/color-diamond.svg

<svg fill="#666" height="50" viewBox="0 0 48 48" width="50" xmlns="http://www.w3.org/2000/svg"><path d="m33 17h10l-19 25z" fill="#0d47a1"/><path d="m5 17 10-12v12z" fill="#84ffff"/><path d="m33 5v12h10z" fill="#1976d2"/><g fill="#0091ea"><path d="m15 17 8.996094 25.148438 9.003906-25.148438z"/><path d="m15 5h9l-9 12z"/><path d="m24 5 9 12v-12z"/></g><path d="m33 17h-18l9-12z" fill="#00b0ff"/><path d="m33 17 5-2 5 2-5 2z" fill="#00b0ff"/><path d="m15 17h-10l18.996094 25.148438z" fill="#00e5ff"/><path d="m15 17 9-2 9 2-9 2z" fill="#00e5ff"/><path d="m5 17 5-2 5 2-5 2z" fill="#e0f7fa"/></svg>

<svg xmlns="http://www.w3.org/2000/svg" viewBox="0 0 48 48" width="50" height="50" fill="#666"><path d="M 33 17 L 43 17 L 24 42 Z" fill="#0d47a1"/><path d="M 5 17 L 15 5 L 15 17 Z" fill="#84ffff"/><path d="M 33 5 L 33 17 L 43 17 Z" fill="#1976d2"/><path d="M 15 17 L 23.996094 42.148438 L 33 17 Z" fill="#0091ea"/><path d="M 15 5 L 24 5 L 15 17 Z" fill="#0091ea"/><path d="M 24 5 L 33 17 L 33 5 Z" fill="#0091ea"/><path d="M 33 17 L 15 17 L 24 5 Z" fill="#00b0ff"/><path d="M 33 17 L 38 15 L 43 17 L 38 19 Z" fill="#00b0ff"/><path d="M 15 17 L 5 17 L 23.996094 42.148438 Z" fill="#00e5ff"/><path d="M 15 17 L 24 15 L 33 17 L 24 19 Z" fill="#00e5ff"/><path d="M 5 17 L 10 15 L 15 17 L 10 19 Z" fill="#e0f7fa"/></svg>
